icons/baby_male_0203m_alt.svg

<svg width="48" height="48" viewBox="0 0 48 48" fill="none" xmlns="http://www.w3.org/2000/svg">
<path fill-rule="evenodd" clip-rule="evenodd" d="M16 7C16 6.44772 16.4477 6 17 6H21C21.5523 6 22 6.44772 22 7V11C22 11.5523 21.5523 12 21 12C20.4477 12 20 11.5523 20 11V9.41421L16.8907 12.5235C17.5892 13.5043 18 14.7042 18 16C18 19.3137 15.3137 22 12 22C8.68629 22 6 19.3137 6 16C6 12.6863 8.68629 10 12 10C13.2958 10 14.4957 10.4108 15.4765 11.1093L18.5858 8H17C16.4477 8 16 7.55228 16 7ZM16 16C16 18.2091 14.2091 20 12 20C9.79086 20 8 18.2091 8 16C8 13.7909 9.79086 12 12 12C14.2091 12 16 13.7909 16 16Z" fill="black"/>
<path fill-rule="evenodd" clip-rule="evenodd" d="M32.9999 18C36.3138 18 39 15.3138 39 12.0001C39 8.68635 36.3138 6 32.9999 6C29.6862 6 27 8.68635 27 12.0001C27 15.3138 29.6862 18 32.9999 18ZM37 12.0001C37 14.2092 35.2092 16 32.9999 16C30.7908 16 29 14.2092 29 12.0001C29 9.79088 30.7909 8 32.9999 8C35.2092 8 37 9.7909 37 12.0001Z" fill="black"/>
<path fill-rule="evenodd" clip-rule="evenodd" d="M41.4317 16.098C41.779 16.2642 42 16.615 42 17V34.0414C42 34.1574 41.9981 34.2736 41.9942 34.3899C42.0059 34.4959 42.0004 34.6021 41.9789 34.7045C41.8532 36.6759 41.1621 38.6399 39.8134 40.1734C38.2949 41.8998 36.0121 43 33 43C26.791 43 24 37.8335 24 34.0414V17.0006L24.6694 17.0002C23.9999 17.0003 24 17.0005 24 17.0006C24 16.6213 24.2146 16.274 24.5541 16.1049C24.8936 15.9358 25.2996 15.9733 25.6023 16.2018C28.8107 18.6227 31.0812 19.6601 33.174 19.6549C35.2561 19.6497 37.4061 18.6109 40.3727 16.2212C40.6725 15.9797 41.0844 15.9318 41.4317 16.098ZM32.852 25.2319C30.3942 22.6863 27.8793 20.5008 26 19.122V34.0414C26 37.0709 28.209 41 33 41C35.4879 41 37.2051 40.1105 38.3116 38.8525C39.302 37.7264 39.8572 36.242 39.9758 34.681C38.447 31.601 35.7275 28.2099 32.852 25.2319ZM40 30.7795C38.3929 28.3774 36.3535 25.979 34.2908 23.8427C33.5268 23.0514 32.7544 22.2907 31.9929 21.5739C32.3882 21.6286 32.7829 21.6559 33.1789 21.6549C35.4612 21.6492 37.6193 20.7051 40 19.0159V30.7795Z" fill="black"/>
</svg>

<svg
  xmlns="http://www.w3.org/2000/svg"
  width="24"
  height="24"
  viewBox="0 0 24 24"
  fill="none"
  stroke="currentColor"
  stroke-width="2"
  stroke-linecap="round"
  stroke-linejoin="round"
>
  <path
    fill-rule="evenodd"
    d="M16 7a1 1 0 0 1 1-1h4a1 1 0 0 1 1 1v4a1 1 0 1 1-2 0V9.414l-3.11 3.11a6 6 0 1 1-1.414-1.414L18.587 8H17a1 1 0 0 1-1-1m0 9a4 4 0 1 1-8 0 4 4 0 0 1 8 0"
    clip-rule="evenodd"
  />
  <path
    fill-rule="evenodd"
    d="M33 18a6 6 0 1 0 0-12 6 6 0 0 0 0 12m4-6a4 4 0 1 1-8 0 4 4 0 0 1 8 0"
    clip-rule="evenodd"
  />
  <path
    fill-rule="evenodd"
    d="M41.432 16.098A1 1 0 0 1 42 17v17.041q0 .175-.006.349a1 1 0 0 1-.015.315c-.126 1.97-.817 3.935-2.166 5.468C38.295 41.9 36.013 43 33 43c-6.209 0-9-5.166-9-8.959v-17.04h.67H24a1 1 0 0 1 1.602-.8c3.209 2.422 5.48 3.46 7.572 3.454 2.082-.005 4.232-1.044 7.199-3.434a1 1 0 0 1 1.059-.123m-8.58 9.134c-2.458-2.546-4.973-4.731-6.852-6.11v14.92C26 37.07 28.209 41 33 41c2.488 0 4.205-.89 5.312-2.148.99-1.126 1.545-2.61 1.664-4.171-1.529-3.08-4.248-6.471-7.124-9.45M40 30.779c-1.607-2.402-3.647-4.8-5.71-6.936a68 68 0 0 0-2.297-2.27q.592.084 1.186.082c2.282-.006 4.44-.95 6.821-2.64z"
    clip-rule="evenodd"
  />
</svg>
